Sources/FrostedUI/Resources/Icons.xcassets/list16.imageset/list-16.svg

<svg width="16" height="16" viewBox="0 0 16 16" fill="none" xmlns="http://www.w3.org/2000/svg" data-fui-icon="true">
  <path
    d="M13.2998 0C14.791 0 16 1.20903 16 2.7002V13.2998C16 14.791 14.791 16 13.2998 16H2.7002C1.20903 16 0 14.791 0 13.2998V2.7002C0 1.20903 1.20903 0 2.7002 0H13.2998ZM2.7002 1.5C2.03745 1.5 1.5 2.03745 1.5 2.7002V13.2998C1.5 13.9625 2.03745 14.5 2.7002 14.5H13.2998C13.9625 14.5 14.5 13.9625 14.5 13.2998V2.7002C14.5 2.03745 13.9625 1.5 13.2998 1.5H2.7002ZM4 10C4.55228 10 5 10.4477 5 11C5 11.5523 4.55228 12 4 12C3.44772 12 3 11.5523 3 11C3 10.4477 3.44772 10 4 10ZM9.25 10.25C9.66421 10.25 10 10.5858 10 11C10 11.4142 9.66421 11.75 9.25 11.75H6.75C6.33579 11.75 6 11.4142 6 11C6 10.5858 6.33579 10.25 6.75 10.25H9.25ZM4 7C4.55228 7 5 7.44772 5 8C5 8.55228 4.55228 9 4 9C3.44772 9 3 8.55228 3 8C3 7.44772 3.44772 7 4 7ZM11.25 7.25C11.6642 7.25 12 7.58579 12 8C12 8.41421 11.6642 8.75 11.25 8.75H6.75C6.33579 8.75 6 8.41421 6 8C6 7.58579 6.33579 7.25 6.75 7.25H11.25ZM4 4C4.55228 4 5 4.44772 5 5C5 5.55228 4.55228 6 4 6C3.44772 6 3 5.55228 3 5C3 4.44772 3.44772 4 4 4ZM12.25 4.25C12.6642 4.25 13 4.58579 13 5C13 5.41421 12.6642 5.75 12.25 5.75H6.75C6.33579 5.75 6 5.41421 6 5C6 4.58579 6.33579 4.25 6.75 4.25H12.25Z"
    fill="currentColor"
  />
</svg>

<svg xmlns="http://www.w3.org/2000/svg" width="16" height="16" fill="none" data-fui-icon="true" viewBox="0 0 16 16"><path fill="currentColor" d="M13.3 0A2.7 2.7 0 0 1 16 2.7v10.6a2.7 2.7 0 0 1-2.7 2.7H2.7A2.7 2.7 0 0 1 0 13.3V2.7A2.7 2.7 0 0 1 2.7 0zM2.7 1.5a1.2 1.2 0 0 0-1.2 1.2v10.6a1.2 1.2 0 0 0 1.2 1.2h10.6a1.2 1.2 0 0 0 1.2-1.2V2.7a1.2 1.2 0 0 0-1.2-1.2zM4 10a1 1 0 1 1 0 2 1 1 0 0 1 0-2m5.25.25a.75.75 0 0 1 0 1.5h-2.5a.75.75 0 0 1 0-1.5zM4 7a1 1 0 1 1 0 2 1 1 0 0 1 0-2m7.25.25a.75.75 0 0 1 0 1.5h-4.5a.75.75 0 0 1 0-1.5zM4 4a1 1 0 1 1 0 2 1 1 0 0 1 0-2m8.25.25a.75.75 0 0 1 0 1.5h-5.5a.75.75 0 0 1 0-1.5z"/></svg>
